X:1
T:Miserere, 77.77 D
T:Miserere, 77.77 D
T:William Henry Monk, 1861
T:Public Domain Courtesy of the Cyber Hymnal™
C:William Henry Monk, 1861
Z:Public Domain
Z:Courtesy of the Cyber Hymnal™
%%score ( 1 2 ) ( 3 4 )
L:1/8
Q:1/4=115
M:none
K:D
V:1 treble 
V:2 treble 
V:3 bass 
V:4 bass 
V:1
 [DF]2 [DF]2 [DF]2 [DF]2 | [DA]2 [CA]2 D4 | [DF]2 [DF]2 [CE]2 D2 | [CE]2 [DF]2 [CE]4 | %4
 [DF]2 [DF]2 [DA]2 [FA]2 | [FB]2 [GB]2 [FA]4 | [DF]2 [DF]2 [CA]2 D2 | [CE]2 [DF]2 [CE]4 | %8
 [DF]2 [FA]2 [FB]2 [DA]2 | [DG]2 [CG]2 [DF]4 | [DF]2 [FA]2 [FB]2 [DA]2 | [DG]2 G2 [CF]4 | %12
 [DF]2 [EA]2 [Fd]2 [DA]2 | [CG]2 [DF]2 [EA]4 |"^rall." [GB]2 [DA]2 [DG]2 [DF]2 | %15
 [DE]2 [CE]2 [DF]4 |] %16
V:2
 x8 | x4 D4 | x6 D2 | x8 | x8 | x8 | x6 D2 | x8 | x8 | x8 | x8 | x2 (ED) x4 | x8 | x8 | x8 | x8 |] %16
V:3
 [D,A,]2 [D,A,]2 [B,,B,]2 [B,,D,]2 | [A,,E,]2 [A,,A,]2 [B,,F,]4 | %2
 [D,F,]2 [D,A,]2 [A,,A,]2 [B,,F,]2 | [A,,A,]2 [D,A,]2 [A,,A,]4 | [D,A,]2 [D,A,]2 [F,A,]2 [D,D]2 | %5
 [B,,D]2 [G,,D]2 [D,D]4 | [D,A,]2 [B,,D,]2 [A,,E,]2 [B,,D,]2 | [A,,A,]2 [D,A,]2 [A,,A,]4 | %8
 [D,A,]2 [D,A,]2 [B,,D]2 [D,F,]2 | [E,B,]2 [A,,A,]2 [D,A,]4 | [D,A,]2 [D,A,]2 [B,,D]2 [D,F,]2 | %11
 [E,B,]2 (CB,) [F,^A,]4 | [D,A,]2 [C,C]2 [B,,D]2 F,2 | [E,G,]2 (A,D) (D2 C2) | %14
 [G,,D]2 [D,F,]2 [B,,B,]2 [D,A,]2 | [A,,A,]2 [A,,A,]2 [D,A,]4 |] %16
V:4
 x8 | x8 | x8 | x8 | x8 | x8 | x8 | x8 | x8 | x8 | x8 | x2 E,2 x4 | x6 F,2 | x2 D,2 A,,4 | x8 | %15
 x8 |] %16

